%
(* MFG *)
( HAAS VF-1: 3AXES PROG )
M09 G21 (Metric)
M05 G17 G90
G28
G43 G54 M05
GOTO1
T7 M06
M42
S1500 M03
G00 G94 X-20.838 Y-6.115
G43 H7 Z5. M08
Z1.
G01 Z-.5 F1000.
X10.838
Z5.
G00 X-12.444 Y0.
Z1.
G01 Z-.5
X12.444
Z5.
G00 X-10.838 Y6.115
Z1.
G01 Z-.5
X20.838
Z5.
G00 X-20.838 Y-6.115
Z.5
G01 Z-1.
X10.838
Z5.
G00 X-12.444 Y0.
Z.5
G01 Z-1.
X12.444
Z5.
G00 X-10.838 Y6.115
Z.5
G01 Z-1.
X20.838
Z5.
M05
T7 M06
S1500 M03
G00 X3.666 Y12.669
G43 H7 Z5. M08
Z1.
G01 Z-5. F1000.
X-3.666
G17
G03 X-9.139 Y9.51 I0. J-6.319
G01 X-12.805 Y3.16
G03 Y-3.16 I5.473 J-3.16
G01 X-9.139 Y-9.51
G03 X-3.666 Y-12.669 I5.473 J3.16
G01 X3.666
G03 X9.139 Y-9.51 I0. J6.319
G01 X12.805 Y-3.16
G03 Y3.16 I-5.473 J3.16
G01 X9.139 Y9.51
G03 X3.666 Y12.669 I-5.473 J-3.16
G01 Z-10.
X-3.666
G03 X-9.139 Y9.51 I0. J-6.319
G01 X-12.805 Y3.16
G03 Y-3.16 I5.473 J-3.16
G01 X-9.139 Y-9.51
G03 X-3.666 Y-12.669 I5.473 J3.16
G01 X3.666
G03 X9.139 Y-9.51 I0. J6.319
G01 X12.805 Y-3.16
G03 Y3.16 I-5.473 J3.16
G01 X9.139 Y9.51
G03 X3.666 Y12.669 I-5.473 J-3.16
G01 Z-15.
X-3.666
G03 X-9.139 Y9.51 I0. J-6.319
G01 X-12.805 Y3.16
G03 Y-3.16 I5.473 J-3.16
G01 X-9.139 Y-9.51
G03 X-3.666 Y-12.669 I5.473 J3.16
G01 X3.666
G03 X9.139 Y-9.51 I0. J6.319
G01 X12.805 Y-3.16
G03 Y3.16 I-5.473 J3.16
G01 X9.139 Y9.51
G03 X3.666 Y12.669 I-5.473 J-3.16
G01 Z-20.
X-3.666
G03 X-9.139 Y9.51 I0. J-6.319
G01 X-12.805 Y3.16
G03 Y-3.16 I5.473 J-3.16
G01 X-9.139 Y-9.51
G03 X-3.666 Y-12.669 I5.473 J3.16
G01 X3.666
G03 X9.139 Y-9.51 I0. J6.319
G01 X12.805 Y-3.16
G03 Y3.16 I-5.473 J3.16
G01 X9.139 Y9.51
G03 X3.666 Y12.669 I-5.473 J-3.16
G01 Z-25.
X-3.666
G03 X-9.139 Y9.51 I0. J-6.319
G01 X-12.805 Y3.16
G03 Y-3.16 I5.473 J-3.16
G01 X-9.139 Y-9.51
G03 X-3.666 Y-12.669 I5.473 J3.16
G01 X3.666
G03 X9.139 Y-9.51 I0. J6.319
G01 X12.805 Y-3.16
G03 Y3.16 I-5.473 J3.16
G01 X9.139 Y9.51
G03 X3.666 Y12.669 I-5.473 J-3.16
G01 Z-25.8
X-3.666
G03 X-9.139 Y9.51 I0. J-6.319
G01 X-12.805 Y3.16
G03 Y-3.16 I5.473 J-3.16
G01 X-9.139 Y-9.51
G03 X-3.666 Y-12.669 I5.473 J3.16
G01 X3.666
G03 X9.139 Y-9.51 I0. J6.319
G01 X12.805 Y-3.16
G03 Y3.16 I-5.473 J3.16
G01 X9.139 Y9.51
G03 X3.666 Y12.669 I-5.473 J-3.16
G01 Z5.
M05
(**** P R O G R A M   E N D *****)
(MACHINE TIME: 1 MIN)
M09 G17
M05
G28 M30
%
